X: 1
T: Miss Wilma Miller
C: Murial A. Johnstone
R: strathspey
Z: 1997 by John Chambers <jc:trillian.mit.edu>
M: C
L: 1/8
K: D
A2 |\
"D"d2 a>g f<d d>B | A<F F>E D3 C |\
"G"B,>D G<B "D"A,>D F<A | "Em"G<E G>F "A7"E2 ||
A2 |\
"D"d2 a>g f<d d>B | A<F F>E "(D7)"D3 C |\
"G"B,>D G<B "D"A2 "Bm"F2 | "Em"G<g "A7"f>e "D"d2- d |]
e |\
"D"f>d "A(Em)"g>e "D"a>f "G"b>g | "D"(3afd A>f "A7"e3e |\
"D"f>d "A(Em)"g>{f}e "D"a2 "G"b>d | "D"A<d "A7"f>e d2- d ||
g |\
"D"f>d "A(Em)"g>e "D"a2 fd | "Em"B<e e>d "A7"c>B A>G |\
"D"(3FAd a>g f<d A>F | "Em"G<g "A7"f>e "D"d2 |]
